src/24/panel/google-chrome-notification.svg

<svg xmlns="http://www.w3.org/2000/svg" width="24" height="24" version="1.1">
 <defs>
  <style id="current-color-scheme" type="text/css">
   .ColorScheme-Text { color:#bebebe; } .ColorScheme-Highlight { color:#5294e2; }
  </style>
 </defs>
 <g>
  <path style="fill:currentColor" class="ColorScheme-Text" d="M 12,4 A 8,8 0 0 0 6.3965,6.293 l 2.7558,4.773 A 3,3 0 0 1 12,9 l 7.412,0 A 8,8 0 0 0 12,4 Z M 5.6992,7.0859 A 8,8 0 0 0 4,12 8,8 0 0 0 9.8652,19.701 L 12.617,14.934 A 3,3 0 0 1 12,15 3,3 0 0 1 9.4062,13.498 L 9.4023,13.5 5.6992,7.0859 Z M 14.23,10 a 3,3 0 0 1 0.77,2 3,3 0 0 1 -0.404,1.498 l 0.002,0.002 -3.7035,6.414 A 8,8 0 0 0 12,20 8,8 0 0 0 20,12 8,8 0 0 0 19.74,10 l -5.51,0 z"/>
  <path style="fill:currentColor" class="ColorScheme-Highlight" d="M 11.999823,10 A 1.9999646,1.9999646 0 0 0 10,11.999823 1.9999646,1.9999646 0 0 0 11.999823,14 1.9999646,1.9999646 0 0 0 14,11.999823 1.9999646,1.9999646 0 0 0 11.999823,10 Z"/>
 </g>
</svg>

<svg xmlns="http://www.w3.org/2000/svg" width="24" height="24"><g fill="currentColor"><path d="M12 4a8 8 0 0 0-5.604 2.293l2.756 4.773A3 3 0 0 1 12 9h7.412A8 8 0 0 0 12 4zM5.7 7.086A8 8 0 0 0 4 12a8 8 0 0 0 5.865 7.701l2.752-4.767A3 3 0 0 1 12 15a3 3 0 0 1-2.594-1.502l-.004.002L5.7 7.086zM14.23 10a3 3 0 0 1 .77 2 3 3 0 0 1-.404 1.498l.002.002-3.704 6.414A8 8 0 0 0 12 20a8 8 0 0 0 8-8 8 8 0 0 0-.26-2h-5.51z" color="#bebebe"/><path d="M12 10a2 2 0 0 0-2 2 2 2 0 0 0 2 2 2 2 0 0 0 2-2 2 2 0 0 0-2-2z" color="#5294e2"/></g></svg>
